svg/Outline/warning.svg

<svg viewBox="0 0 24 24" xmlns="http://www.w3.org/2000/svg" width="24" height="24"><path d="M12 15.1a1 1 0 1 1 0 2 1 1 0 0 1 0-2M11.99 7c.41 0 .66.1.9.27q.38.26.36.66l-.27 5.28a.6.6 0 0 1-.25.44l-.07.05c-.18.11-.47.2-.67.2q-.3 0-.57-.15l-.07-.05q-.3-.2-.33-.5l-.27-5.27v-.1a.8.8 0 0 1 .36-.58c.24-.16.47-.25.88-.25"/><path fill-rule="evenodd" d="M9.97 2.41a5 5 0 0 1 4.06 0c1.49.66 2.63 2.64 4.9 6.58 2.29 3.95 3.43 5.93 3.26 7.54l-.04.27a5 5 0 0 1-2 3.26l-.12.08c-1.33.87-3.61.87-8.03.87h-1.6C7 21 5.12 20.9 3.96 20.14l-.12-.08a5 5 0 0 1-2-3.26l-.04-.27c-.15-1.41.7-3.1 2.45-6.14l.8-1.4c2.21-3.82 3.35-5.8 4.77-6.51zm3.33 1.64a3.2 3.2 0 0 0-2.6 0c-.29.13-.71.46-1.42 1.46-.7.98-1.5 2.38-2.66 4.38s-1.96 3.4-2.47 4.5c-.5 1.1-.58 1.64-.55 1.96.1.9.57 1.72 1.3 2.25.26.18.76.39 1.97.5 1.2.1 2.82.11 5.13.11s3.93 0 5.13-.11c1.21-.11 1.71-.32 1.97-.5a3.2 3.2 0 0 0 1.3-2.25c.03-.32-.04-.85-.55-1.96-.5-1.1-1.31-2.5-2.47-4.5s-1.97-3.4-2.66-4.38c-.7-1-1.13-1.33-1.42-1.46" clip-rule="evenodd"/></svg>

<svg viewBox="0 0 24 24" xmlns="http://www.w3.org/2000/svg" width="24" height="24"><path d="M12 15.1a1 1 0 1 1 0 2 1 1 0 0 1 0-2M11.99 7C12.4 7 12.65 7.1 12.89 7.27Q13.27 7.53 13.25 7.93L12.98 13.21A.6 .6 0 0 1 12.73 13.65L12.66 13.7C12.48 13.81 12.19 13.9 11.99 13.9Q11.69 13.9 11.42 13.75L11.35 13.7Q11.05 13.5 11.02 13.2L10.75 7.83A.8 .8 0 0 1 11.11 7.25C11.35 7.09 11.58 7 11.99 7"/><path fill-rule="evenodd" d="M9.97 2.41a5 5 0 0 1 4.06 0c1.49.66 2.63 2.64 4.9 6.58 2.29 3.95 3.43 5.93 3.26 7.54l-.04.27a5 5 0 0 1-2 3.26l-.12.08c-1.33.87-3.61.87-8.03.87h-1.6C7 21 5.12 20.9 3.96 20.14l-.12-.08a5 5 0 0 1-2-3.26l-.04-.27c-.15-1.41.7-3.1 2.45-6.14l.8-1.4c2.21-3.82 3.35-5.8 4.77-6.51zm3.33 1.64a3.2 3.2 0 0 0-2.6 0c-.29.13-.71.46-1.42 1.46-.7.98-1.5 2.38-2.66 4.38s-1.96 3.4-2.47 4.5c-.5 1.1-.58 1.64-.55 1.96.1.9.57 1.72 1.3 2.25.26.18.76.39 1.97.5 1.2.1 2.82.11 5.13.11s3.93 0 5.13-.11c1.21-.11 1.71-.32 1.97-.5a3.2 3.2 0 0 0 1.3-2.25c.03-.32-.04-.85-.55-1.96-.5-1.1-1.31-2.5-2.47-4.5s-1.97-3.4-2.66-4.38c-.7-1-1.13-1.33-1.42-1.46" clip-rule="evenodd"/></svg>
